svg/color/mplx.svg

<svg width="222" height="147" viewBox="0 0 222 147" fill="none" xmlns="http://www.w3.org/2000/svg">
<path d="M221.343 139.591C223.196 142.763 220.909 146.749 217.235 146.749H175.899C174.21 146.749 172.648 145.854 171.794 144.396L91.5828 7.50295C89.7243 4.33117 92.0116 0.339844 95.6878 0.339844H137.255C138.946 0.339844 140.51 1.23742 141.363 2.69752L221.343 139.591Z" fill="black"/>
<path d="M110.03 102.38C110.982 103.983 110.91 105.994 109.847 107.525L86.8457 140.634C84.8633 143.487 80.5899 143.323 78.8333 140.325L1.008 7.50295C-0.850464 4.33117 1.43688 0.339844 5.11303 0.339844H46.703C48.3817 0.339844 49.9361 1.22444 50.7935 2.66764L110.03 102.38Z" fill="black"/>
<path d="M37.9148 138.268C39.7962 141.44 37.5104 145.453 33.8228 145.453H5.30422C2.67655 145.453 0.54641 143.323 0.54641 140.696V92.6214C0.54641 87.7834 6.92783 86.0331 9.39619 90.194L37.9148 138.268Z" fill="black"/>
</svg>

<svg xmlns="http://www.w3.org/2000/svg" width="222" height="147" fill="none" viewBox="0 0 222 147"><path fill="#000" d="M221.343 139.591c1.853 3.172-.434 7.158-4.108 7.158h-41.336a4.76 4.76 0 0 1-4.105-2.353L91.583 7.503C89.724 4.33 92.012.34 95.688.34h41.567c1.691 0 3.255.897 4.108 2.358zM110.03 102.38a4.76 4.76 0 0 1-.183 5.145l-23.001 33.109c-1.983 2.853-6.256 2.689-8.013-.309L1.008 7.503C-.85 4.33 1.437.34 5.113.34h41.59c1.679 0 3.233.884 4.09 2.328zm-72.115 35.888c1.881 3.172-.405 7.185-4.092 7.185H5.304a4.76 4.76 0 0 1-4.758-4.757V92.621c0-4.838 6.382-6.588 8.85-2.427z"/></svg>
